X:189
M:2/4
L:1/8
K:F
|: FGAB | cF (A/B/c/A/) | cF (A/B/c/A/) | d/c/B/A/ G2 | FGAc | f>ga>g | fdcA | G2d2 :|

